flaticon/essential/switch-6.svg

<svg xmlns="http://www.w3.org/2000/svg" width="32" height="32" viewBox="0 0 24 24">
    <path d="M 16.800781 4.800781 L 7.199219 4.800781 C 3.230469 4.800781 0 8.03125 0 12 C 0 15.96875 3.230469 19.199219 7.199219 19.199219 L 16.800781 19.199219 C 20.769531 19.199219 24 15.96875 24 12 C 24 8.03125 20.769531 4.800781 16.800781 4.800781 Z M 16.800781 18.398438 L 7.199219 18.398438 C 3.671875 18.398438 0.800781 15.527344 0.800781 12 C 0.800781 8.472656 3.671875 5.601562 7.199219 5.601562 L 16.800781 5.601562 C 20.328125 5.601562 23.199219 8.472656 23.199219 12 C 23.199219 15.527344 20.328125 18.398438 16.800781 18.398438 Z M 16.800781 18.398438"/>
    <path d="M16.800781 6.800781C13.933594 6.800781 11.601562 9.132812 11.601562 12 11.601562 14.867188 13.933594 17.199219 16.800781 17.199219 19.667969 17.199219 22 14.867188 22 12 22 9.132812 19.667969 6.800781 16.800781 6.800781zM16.800781 16.398438C14.375 16.398438 12.398438 14.425781 12.398438 12 12.398438 9.574219 14.375 7.601562 16.800781 7.601562 19.226562 7.601562 21.199219 9.574219 21.199219 12 21.199219 14.425781 19.226562 16.398438 16.800781 16.398438zM6.800781 8.398438C6.578125 8.398438 6.398438 8.578125 6.398438 8.800781L6.398438 15.199219C6.398438 15.421875 6.578125 15.601562 6.800781 15.601562 7.019531 15.601562 7.199219 15.421875 7.199219 15.199219L7.199219 8.800781C7.199219 8.578125 7.019531 8.398438 6.800781 8.398438zM6.800781 8.398438"/>
</svg>

<svg xmlns="http://www.w3.org/2000/svg" width="32" height="32" viewBox="0 0 24 24">
    <path d="M16.8 4.8H7.2C3.23 4.8 0 8.032 0 12c0 3.969 3.23 7.2 7.2 7.2h9.6c3.97 0 7.2-3.231 7.2-7.2 0-3.969-3.23-7.2-7.2-7.2zm0 13.598H7.2A6.407 6.407 0 0 1 .8 12a6.407 6.407 0 0 1 6.4-6.398h9.6A6.407 6.407 0 0 1 23.2 12a6.407 6.407 0 0 1-6.4 6.398zm0 0"/>
    <path d="M16.8 6.8a5.205 5.205 0 0 0-5.198 5.2c0 2.867 2.332 5.2 5.199 5.2S22 14.866 22 12s-2.332-5.2-5.2-5.2zm0 9.598A4.406 4.406 0 0 1 12.399 12a4.406 4.406 0 0 1 4.403-4.398A4.403 4.403 0 0 1 21.199 12a4.403 4.403 0 0 1-4.398 4.398zm0 0M6.8 8.398a.402.402 0 0 0-.402.403v6.398a.401.401 0 0 0 .8 0L7.2 8.801a.401.401 0 0 0-.398-.403zm0 0"/>
</svg>
